X:1
T:[ID 1-99]
T:[ID 1-99]
T:Bezeichnung standardisiert: Englischer Contratanz Englisch. Conter Tantz
T:Urheber unbekannt Datum in der hier transkribierten schriftlichen Quelle: vermutlich vor 1767
C:Urheber unbekannt
C:Datum in der hier transkribierten schriftlichen Quelle: vermutlich vor 1767
L:1/8
M:4/4
K:G
V:1 treble 
V:1
 B4 ABcA | B2 AB G2 g2 | d2 e2 d2 c2 | B2 AB G2 A2 | BdBG A2 g2 | fafd e2 g2 | f2 ed e2 d^c | %7
 d4 D4 :: A2 AB A2 ^G2 | A2 AB A2 AB | c2 cd c2 B2 | A4 A4 | G2 GF G2 g2 | G2 g2 G4 | A2 AB A2 a2 | %15
 A2 a2 A2 AB | c4 B4 | cdef g2 c2 | B2 AG A2 GF | G4 G,4 :: d4 ^c4 | d2 D2 D2 AB | c4 B4 | %23
 A2 gf g2 d2 | c4 B4 | A2 gf g2 c2 | B2 AG A2 GF | G4 G,4 :: B4 A4 | B2 AG F2 D2 | B4 A4 | %31
 B2 AG F2 D2 | G2 A2 B2 c2 | d2 (3def g2 c2 | BdcB AcAF | G4 G,4 :| %36

